packages/foundations/assets/icons/functional/images/social/face_disappointed_16.svg

<svg width="16" height="16" viewBox="0 0 16 16" fill="none" xmlns="http://www.w3.org/2000/svg">
<g clip-path="url(#clip0_187_362)">
<path fill-rule="evenodd" clip-rule="evenodd" d="M12 8C12 10.2056 10.2056 12 8.00002 12C5.79442 12 4.00002 10.2056 4.00002 8C4.00002 5.7944 5.79442 4 8.00002 4C10.2056 4 12 5.7944 12 8ZM2.40002 8C2.40002 11.0928 4.90722 13.6 8.00002 13.6C11.0928 13.6 13.6 11.0928 13.6 8C13.6 4.9072 11.0928 2.4 8.00002 2.4C4.90722 2.4 2.40002 4.9072 2.40002 8ZM7.57442 7.0616C7.78082 6.6832 7.64162 6.2224 7.27042 6.0032C6.89842 5.7824 6.41282 5.9128 6.18082 6.276C6.16402 6.3024 6.06962 6.4368 5.89682 6.4416C5.45522 6.4552 5.10802 6.824 5.12082 7.2656C5.13362 7.6984 5.48882 8.0416 5.92002 8.0416H5.94402C7.02722 8.0088 7.52162 7.1584 7.57442 7.0616ZM10.1032 6.4416C9.93522 6.4368 9.84162 6.3104 9.82002 6.2784C9.60322 5.9048 9.12642 5.7672 8.74402 5.9768C8.35602 6.1888 8.21282 6.6744 8.42482 7.0616C8.47762 7.1584 8.97202 8.0088 10.0552 8.0416H10.0792C10.5104 8.0416 10.8656 7.6984 10.8784 7.2656C10.8928 6.8232 10.5456 6.4544 10.1032 6.4416ZM9.89922 9.5344C9.77442 9.0288 9.21522 8.072 7.99762 8.072C6.78882 8.072 6.21202 9.02 6.07602 9.5208C6.00642 9.776 6.10642 10.0448 6.32002 10.2016C6.53442 10.3592 6.82642 10.3648 7.04962 10.2208C7.06322 10.212 7.39442 10.004 7.98642 10.004C8.56722 10.004 8.89762 10.2048 8.92162 10.2208C9.02962 10.2936 9.15442 10.3296 9.27842 10.3296C9.40562 10.3296 9.53202 10.292 9.64162 10.2168C9.86002 10.0648 9.96322 9.7936 9.89922 9.5344Z" fill="#1A1C1F"/>
</g>
<defs>
<clipPath id="clip0_187_362">
<rect width="16" height="16" fill="white"/>
</clipPath>
</defs>
</svg>

<svg xmlns="http://www.w3.org/2000/svg" width="16" height="16" fill="none"><g clip-path="url(#a)"><path fill="#1A1C1F" fill-rule="evenodd" d="M12 8c0 2.206-1.794 4-4 4s-4-1.794-4-4 1.794-4 4-4 4 1.794 4 4M2.4 8a5.6 5.6 0 1 0 11.2 0A5.6 5.6 0 0 0 2.4 8m5.174-.938a.787.787 0 0 0-.304-1.059.813.813 0 0 0-1.09.273.36.36 0 0 1-.283.166.801.801 0 0 0 .023 1.6h.024c1.083-.033 1.578-.884 1.63-.98m2.53-.62a.36.36 0 0 1-.284-.164.8.8 0 0 0-1.395.784c.053.096.547.947 1.63.98h.024a.8.8 0 0 0 .024-1.6m-.205 3.092c-.125-.505-.684-1.462-1.901-1.462-1.21 0-1.786.948-1.922 1.449-.07.255.03.524.244.68a.645.645 0 0 0 .73.02c.013-.009.344-.217.936-.217.581 0 .912.2.936.217a.64.64 0 0 0 .72-.004.64.64 0 0 0 .257-.683" clip-rule="evenodd"/></g><defs><clipPath id="a"><path fill="#fff" d="M0 0h16v16H0z"/></clipPath></defs></svg>
